X:206
T:Glise de Sherbrooke
M:4/4
L:1/8
K:G
|: "G"B2 B2 "C"cBce | "G"d2 dc B2d2 | "D7"cdcB A2 A2 | "G"dedc BAGA |
| "G"B2 B2 "C"cBce | "G"d2 dc B2d2 | "D7"cdcB AFDF | "G"G2B2 G4 :|
|: "C"g2 gf efge | "G"d2 dc BGBd | "D7"c2 cB AFAc | "G"dedc B2G2 |
| "C"gagf efge | "G"d2 dc BGBd | "D7"cdcB A2 F2 | "G"G2B2 G4 :|
